icons/modus-outlined/link-off.svg

<svg xmlns="http://www.w3.org/2000/svg" width="24" height="24" fill="currentColor" viewBox="0 0 24 24">
  <path d="M14.48 10.93L14.82 10.59C15.21 10.2 15.21 9.57001 14.82 9.18001C14.43 8.79001 13.8 8.79001 13.41 9.18001L13.07 9.52001L14.48 10.93ZM13.34 6.27001C14.69 4.92001 16.99 5.08001 18.12 6.75001C18.96 7.99001 18.7 9.68001 17.64 10.74L16.64 11.74C16.27 12.11 16.27 12.71 16.64 13.08C17.01 13.45 17.61 13.45 17.98 13.08L18.91 12.15C20.76 10.3 21.06 7.31001 19.4 5.29001C17.49 2.98001 14.06 2.86001 12 4.92001L10.91 6.01001C10.54 6.38001 10.54 6.98001 10.91 7.35001C11.28 7.72001 11.88 7.72001 12.25 7.35001L13.34 6.27001ZM9.53004 13.05L9.17004 13.41C8.78004 13.8 8.78004 14.43 9.17004 14.82C9.56004 15.21 10.19 15.21 10.58 14.82L10.94 14.46L9.53004 13.05ZM10.65 17.74C9.30004 19.09 7.00004 18.92 5.87004 17.25C5.03004 16.01 5.29004 14.32 6.35004 13.26L7.37004 12.24C7.74004 11.87 7.74004 11.27 7.37004 10.9C7.00004 10.53 6.40004 10.53 6.03004 10.9L5.08004 11.85C3.23004 13.7 2.93004 16.69 4.59004 18.71C6.50004 21.02 9.93004 21.14 11.99 19.08L13.1 17.97C13.47 17.6 13.47 17 13.1 16.63C12.73 16.26 12.13 16.26 11.76 16.63L10.65 17.74ZM4.93004 6.34001L17.66 19.07C18.05 19.46 18.68 19.46 19.07 19.07C19.46 18.68 19.46 18.05 19.07 17.66L6.34004 4.93001C5.95004 4.54001 5.32004 4.54001 4.93004 4.93001C4.54004 5.32001 4.54004 5.95001 4.93004 6.34001Z"/>
</svg>

<svg xmlns="http://www.w3.org/2000/svg" width="24" height="24" fill="currentColor" viewBox="0 0 24 24">
  <path d="m14.48 10.93.34-.34a.996.996 0 1 0-1.41-1.41l-.34.34zm-1.14-4.66a3.11 3.11 0 0 1 4.78.48c.84 1.24.58 2.93-.48 3.99l-1 1a.948.948 0 0 0 1.34 1.34l.93-.93c1.85-1.85 2.15-4.84.49-6.86-1.91-2.31-5.34-2.43-7.4-.37l-1.09 1.09a.948.948 0 0 0 1.34 1.34zm-3.81 6.78-.36.36a.996.996 0 1 0 1.41 1.41l.36-.36zm1.12 4.69C9.3 19.09 7 18.92 5.87 17.25c-.84-1.24-.58-2.93.48-3.99l1.02-1.02a.948.948 0 0 0-1.34-1.34l-.95.95c-1.85 1.85-2.15 4.84-.49 6.86 1.91 2.31 5.34 2.43 7.4.37l1.11-1.11a.948.948 0 0 0-1.34-1.34zM4.93 6.34l12.73 12.73a.996.996 0 1 0 1.41-1.41L6.34 4.93a.996.996 0 1 0-1.41 1.41"/>
</svg>
